src/qt/rpdchain/res/img/ic-nav-privacy.svg

<?xml version="1.0" encoding="UTF-8"?>
<svg width="24px" height="40px" viewBox="0 0 24 40" version="1.1" xmlns="http://www.w3.org/2000/svg" xmlns:xlink="http://www.w3.org/1999/xlink">
    <!-- Generator: Sketch 52.6 (67491) - http://www.bohemiancoding.com/sketch -->
    <title>Privacy</title>
    <desc>Created with Sketch.</desc>
    <g id="Privacy" stroke="none" stroke-width="1" fill="none" fill-rule="evenodd">
        <g id="Group" transform="translate(1.000000, 13.000000)" fill="#938DA5" fill-rule="nonzero">
            <path d="M20.025,10.116 L17.771,0.009 L11,1.156 L4.229,0 L1.975,10.116 L0,10.116 L0,12.116 L22,12.116 L22,10.116 L20.025,10.116 Z M5.771,2.294 L11,3.183 L16.229,2.283 L17.976,10.116 L4.024,10.116 L5.771,2.294 Z" id="Path_18869"></path>
            <path d="M12,16.116 L10,16.116 L10,14.116 L1,14.116 L1,17.854 C1.08087292,20.2726593 3.08016383,22.1830929 5.5,22.154 C7.77023475,22.0683766 9.65187105,20.366305 9.964,18.116 L12.036,18.116 C12.3490129,20.3655153 14.2304203,22.0665369 16.5,22.152 C18.9198362,22.1810929 20.9191271,20.2706593 21,17.852 L21,14.116 L12,14.116 L12,16.116 Z M8,17.854 C7.90893564,19.1676128 6.81676551,20.186691 5.5,20.186691 C4.18323449,20.186691 3.09106436,19.1676128 3,17.854 L3,16.116 L8,16.116 L8,17.854 Z M14,16.116 L19,16.116 L19,17.854 C18.9089356,19.1676128 17.8167655,20.186691 16.5,20.186691 C15.1832345,20.186691 14.0910644,19.1676128 14,17.854 L14,16.116 Z" id="Path_18870"></path>
        </g>
    </g>
</svg>

<?xml version="1.0" encoding="utf-8"?>
<!-- Generator: Adobe Illustrator 28.0.0, SVG Export Plug-In . SVG Version: 6.00 Build 0)  -->
<svg version="1.1" id="Layer_1" xmlns="http://www.w3.org/2000/svg" xmlns:xlink="http://www.w3.org/1999/xlink" x="0px" y="0px"
	 viewBox="0 0 24 40" style="enable-background:new 0 0 24 40;" xml:space="preserve">
<style type="text/css">
	.st0{fill:#D1D5DB;}
</style>
<g id="Privacy">
	<g id="Group" transform="translate(1.000000, 13.000000)">
		<path id="Path_18869" class="st0" d="M20,10.1L17.8,0L11,1.2L4.2,0L2,10.1H0v2h22v-2H20z M5.8,2.3L11,3.2l5.2-0.9l1.7,7.8H4
			L5.8,2.3z"/>
		<path id="Path_18870" class="st0" d="M12,16.1h-2v-2H1v3.7c0.1,2.4,2.1,4.3,4.5,4.3c2.3-0.1,4.2-1.8,4.5-4H12c0.3,2.2,2.2,4,4.5,4
			c2.4,0,4.4-1.9,4.5-4.3v-3.7h-9V16.1z M8,17.9c-0.1,1.3-1.2,2.3-2.5,2.3s-2.4-1-2.5-2.3v-1.7h5V17.9z M14,16.1h5v1.7
			c-0.1,1.3-1.2,2.3-2.5,2.3s-2.4-1-2.5-2.3V16.1z"/>
	</g>
</g>
</svg>
